X:202
M:3/2
L:1/4
K:Ab
E2 | E A c2 B2 | A F E2 E2 | E A c2 A2 | B4 d2 | c B A2 B2 | c A F2 !sintro!E2 | E A c2 B2 | A4 !eintro!|]
